X: 7
T: Missa J'ay pris amours / Gloria
N: Derived from Ort1002b-Missa_Jay_pris_amours-Gloria.krn
C: Marbrianus de Orto
%%abc-version 2.0
%%abcx-abcm2ps-target-version 5.9.1 (29 Sep 2008)
%%abc-creator hum2abc beta
%%abcx-conversion-date 2019/02/17 07:28:36
%%abc-edited-by Jesse Rodin
%%abc-edited-by Jesse Rodin 8/11/2013
%%abcx-initial-encoding-date 2013/08/11/
%%humdrum-veritas 4007409569
%%humdrum-veritas-data 2007945777
%%linebreak <none>
%%barnumbers 0
L: 1/4
M: 3/1
Q: 1/2=120
%%staves [1 2 3 4]
V: 1 clef=treble
V: 2 clef=treble-8
V: 3 clef=treble-8
V: 4 clef=bass
K: C
[V:1] z12 | 
[V:2] A4c4B4 | 
[V:3] z12 | 
[V:4] A,4A,2A,2G,4 | 
[V:1] z12 | 
[V:2] A2c4B2E2c2- | 
[V:3] z12 | 
[V:4] A,3G,E,4z2A,2 | 
[V:1] z12 | 
[V:2] c2B2A2c3BG2 | 
[V:3] z12 | 
[V:4] A,2G,2A,3G,E,4 | 
[V:1] z12 | 
[V:2] A2e3fg2c2e2- | 
[V:3] z12 | 
[V:4] z2A,4E,2A,2G,2 | 
[V:1] z12 | 
[V:2] e2c2B2A2B4 | 
[V:3] z12 | 
[V:4] E,2A,2G,2A,4^G,2 | 
[V:1] A4c4B4 | 
[V:2] A4z2e3fg2 | 
[V:3] A4A4G4 | 
[V:4] A,4F,2A,2E,4 | 
[V:1] E4z2G2G2A2 | 
[V:2] c3de4e4 | 
[V:3] A3GE4z4 | 
[V:4] z4B,2B,2C3B, | 
[V:1] B2c3BG2z2B2 | 
[V:2] d2e3dB2e2d2 | 
[V:3] z4G4G2G2 | 
[V:4] G,2C,3D,E,3F,G,2 | 
[V:1] c2d2e3dB4 | 
[V:2] f4g8 | 
[V:3] A2B2c3BG4 | 
[V:4] F,2D,2C,4E,3D, | 
[V:1] z4z4E4 | 
[V:2] g2fed4c4 | 
[V:3] z4z2B2c4 | 
[V:4] E,2D,2G,4A,4 | 
[V:1] F2F2E2G3AB2 | 
[V:2] A3Bc4g4 | 
[V:3] d4e4c2d2 | 
[V:4] D,4z2C,4G,2 | 
[V:1] c4B2A4^G2 | 
[V:2] e2f2d4e4 | 
[V:3] c2A2G2A2B4 | 
[V:4] A,2F,2G,2F,2E,4 | 
[V:1] A8z4 | 
[V:2] z2e2d2c4B2 | 
[V:3] A4z4z4 | 
[V:4] z4z2A,4G,2 | 
[V:1] z2A4G2F4 | 
[V:2] c2d3B^c2d4 | 
[V:3] z4z4z2A2- | 
[V:4] F,4E,4D,4 | 
[V:1] E4z4z2G2 | 
[V:2] z2e4d2e4 | 
[V:3] A2G2F4E4 | 
[V:4] z4A,4B,4 | 
[V:1] A2G2F4E4 | 
[V:2] z4z4c4 | 
[V:3] z12 | 
[V:4] C4D4E3D | 
[V:1] z2G4A2B2c2- | 
[V:2] d4e2d2g2e2 | 
[V:3] z12 | 
[V:4] B,4E,2F,2E,2A,2- | 
[V:1] cBG2A2G4F2 | 
[V:2] f2e4d4c2- | 
[V:3] z12 | 
[V:4] A,B,C4B,2A,3G, | 
[V:1] G2F3EE4D2 | 
[V:2] c2d2B4A3B | 
[V:3] z12 | 
[V:4] E,2D,2E,2G,2F,4 | 
[V:1] E8z4 | 
[V:2] c4B4z4 | 
[V:3] z12 | 
[V:4] E,8z4 | 
[V:1] B4B2c2B2G2 | 
[V:2] z4z4z2B2 | 
[V:3] e12- | 
[V:4] E,3F,G,2A,2G,2E,2- | 
[V:1] z2A2B2B2c3B | 
[V:2] B2c2B2G2z2A2 | 
[V:3] e12- | 
[V:4] E,2A,2G,2E,2A,4 | 
[V:1] G4z4c3B | 
[V:2] B2c2B2A3Bc2- | 
[V:3] e12- | 
[V:4] E,3F,G,2A,2A,,3B,, | 
[V:1] A2G2A2c2B2c2 | 
[V:2] c2B2A4E2A2 | 
[V:3] e12 | 
[V:4] C,D,E,2A,,2A,2G,2A,2 | 
[V:1] B2A2G2c2B4 | 
[V:2] G2A2E2z2z4 | 
[V:3] e12 | 
[V:4] E,2C4A,2G,4 | 
[V:1] A4z4c2c2 | 
[V:2] c2c2d3cA4 | 
[V:3] f12- | 
[V:4] F,12 | 
[V:1] d3cA4z4 | 
[V:2] z2A2d4d4 | 
[V:3] f12 | 
[V:4] D,8D,4 | 
[V:1] G3AB2A4G2 | 
[V:2] B2c2G2A2B4 | 
[V:3] e12- | 
[V:4] E,4z4E,4 | 
[V:1] c4B4c3d | 
[V:2] A4E4z2e2- | 
[V:3] e12 | 
[V:4] A,4G,4A,4 | 
[V:1] e8d3c | 
[V:2] e2e2g8 | 
[V:3] c8B4 | 
[V:4] A,4E,2C,2G,4 | 
[V:1] c6B2B2A2 | 
[V:2] f4g8 | 
[V:3] c4d8 | 
[V:4] A,4G,8 | 
[V:1] c3BA2G2A4 | 
[V:2] e4z2E2F4 | 
[V:3] c12 | 
[V:4] C,4z4z4 | 
[V:1] z4z4c2c2 | 
[V:2] E2F3EG4^F2 | 
[V:3] z12 | 
[V:4] C3B,A,2G,2A,4 | 
[V:1] dcBAG2A4^G2 | 
[V:2] =B4c2d2B4 | 
[V:3] z12 | 
[V:4] G,3F,E,2D,2E,4 | 
[V:1] A3GE2c3BA2 | 
[V:2] A4G4A4 | 
[V:3] c12- | 
[V:4] F,3E,C,4F,4 | 
[V:1] G2A3GG4^F2 | 
[V:2] z4z4d4 | 
[V:3] c4c2B2A4 | 
[V:4] E,2F,4G,2D,4 | 
[V:1] G4A4G2c2- | 
[V:2] B2G2c2A2B2A2 | 
[V:3] G2c4d2e4 | 
[V:4] E,4F,4E,2A,2- | 
[V:1] cBc2B2G2A4 | 
[V:2] e2f2d2e2z2A2 | 
[V:3] A4G2c4d2 | 
[V:4] A,G,F,2G,2E,2F,4 | 
[V:1] z2G2c4d2e2- | 
[V:2] B2c3defg4- | 
[V:3] e4A4G2c2- | 
[V:4] E,4z4z4 | 
[V:1] edB4c4d2- | 
[V:2] g4g2c2e2f2 | 
[V:3] c2d2e4A4 | 
[V:4] C,2G,2E,2A,4D,2 | 
[V:1] d2c2A4G4 | 
[V:2] g2e2z2A2B4 | 
[V:3] G2c4d2e2dc | 
[V:4] G,2A,2F,4E,4 | 
[V:1] G12 ||  
[V:2] e12 ||  
[V:3] B12 ||  
[V:4] E,12 ||  
[V:1]  [K:C] [K:clef=treble][M:2/1]z8 | 
[V:2]  [K:C] [K:clef=treble-8][M:2/1]z8 | 
[V:3]  [K:C] [K:clef=treble-8][M:2/1]z8 | 
[V:4]  [K:C] [K:clef=bass][M:2/1]E,4E,4 | 
[V:1] z8 | 
[V:2] A4B4 | 
[V:3] z8 | 
[V:4] F,4E,4 | 
[V:1] z8 | 
[V:2] c4B4 | 
[V:3] z8 | 
[V:4] A,4G,4 | 
[V:1] A4A4 | 
[V:2] c4d4 | 
[V:3] z8 | 
[V:4] F,8 | 
[V:1] B6c2 | 
[V:2] B6AG | 
[V:3] z8 | 
[V:4] E,8 | 
[V:1] d6c2 | 
[V:2] B6A2 | 
[V:3] z8 | 
[V:4] z8 | 
[V:1] B2G2A4 | 
[V:2] d2e2c4 | 
[V:3] z8 | 
[V:4] z8 | 
[V:1] B4z4 | 
[V:2] B3AB2G2 | 
[V:3] E8 | 
[V:4] z8 | 
[V:1] A4B4 | 
[V:2] c2d2G2g2- | 
[V:3] F4E4 | 
[V:4] z8 | 
[V:1] c4B4 | 
[V:2] g2f4e2 | 
[V:3] A4G4 | 
[V:4] z8 | 
[V:1] d3cA4 | 
[V:2] f2d4cd | 
[V:3] F8 | 
[V:4] z8 | 
[V:1] G4z4 | 
[V:2] e8 | 
[V:3] E8 | 
[V:4] B,4B,4 | 
[V:1] E4G4 | 
[V:2] z4d4 | 
[V:3] z8 | 
[V:4] C4B,4 | 
[V:1] A2c4B2 | 
[V:2] e4e4 | 
[V:3] z8 | 
[V:4] A,4G,4 | 
[V:1] c2d3cBA | 
[V:2] f4d4 | 
[V:3] z8 | 
[V:4] F,8 | 
[V:1] G2A4^G2 | 
[V:2] e2c2B4 | 
[V:3] z8 | 
[V:4] E,8 | 
[V:1] A4z4 | 
[V:2] A4z4 | 
[V:3] z8 | 
[V:4] z8 | 
[V:1] E8- | 
[V:2] c8- | 
[V:3] G8- | 
[V:4] C,8- | 
[V:1] E4D4 | 
[V:2] c4d4 | 
[V:3] G4G4 | 
[V:4] C,4B,,4 | 
[V:1] C8 | 
[V:2] e8 | 
[V:3] A8 | 
[V:4] A,,8 | 
[V:1] z4E4 | 
[V:2] z4e4 | 
[V:3] z4A4 | 
[V:4] z4C,4 | 
[V:1] F4G4 | 
[V:2] d4B4 | 
[V:3] A4G4 | 
[V:4] D,4E,4 | 
[V:1] F4D4 | 
[V:2] A4G4 | 
[V:3] A4B4 | 
[V:4] F,4G,4 | 
[V:1] E6F2 | 
[V:2] G8 | 
[V:3] c6B2 | 
[V:4] C,6D,2 | 
[V:1] G2FED2G2- | 
[V:2] z4d4- | 
[V:3] G4B4 | 
[V:4] E,2F,2G,4 | 
[V:1] G2^FEF4 | 
[V:2] d4d4 | 
[V:3] A8 | 
[V:4] D,8 | 
[V:1] G4z2E2- | 
[V:2] B3cd2G2- | 
[V:3] G8 | 
[V:4] E,2D,C,B,,2C,2- | 
[V:1] E2F2G4 | 
[V:2] G2d4c2 | 
[V:3] z8 | 
[V:4] C,2D,2E,4 | 
[V:1] A3GE4 | 
[V:2] d4c4 | 
[V:3] z8 | 
[V:4] D,4A,4 | 
[V:1] z4G4 | 
[V:2] e8 | 
[V:3] E8 | 
[V:4] B,4C4- | 
[V:1] A3Gc4- | 
[V:2] z4a4 | 
[V:3] F8 | 
[V:4] C4A,4 | 
[V:1] c2BAB4 | 
[V:2] g8 | 
[V:3] G8 | 
[V:4] D8 | 
[V:1] c6BA | 
[V:2] e8- | 
[V:3] A8 | 
[V:4] C8 | 
[V:1] G8 | 
[V:2] e8 | 
[V:3] E8 | 
[V:4] B,8 | 
[V:1] G4A4 | 
[V:2] e4A4 | 
[V:3] E4F4 | 
[V:4] z8 | 
[V:1] E4A4 | 
[V:2] B4c4 | 
[V:3] G4A4 | 
[V:4] z8 | 
[V:1] G4c4 | 
[V:2] B2e3de2- | 
[V:3] E4E2F2 | 
[V:4] z8 | 
[V:1] B2A4^G2 | 
[V:2] e2c2B4 | 
[V:3] G2A2E4 | 
[V:4] z8 | 
[V:1] [M:3/1]A8z4 | 
[V:2] [M:3/1]A8z4 | 
[V:3] [M:3/1]z12 | 
[V:4] [M:3/1]A,8B,4 | 
[V:1] G4G4A4 | 
[V:2] e4e4f4 | 
[V:3] z12 | 
[V:4] C8F,4 | 
[V:1] G4c8 | 
[V:2] e4a6g2 | 
[V:3] z12 | 
[V:4] C4A,4F,4 | 
[V:1] B4A8 | 
[V:2] g8^f4 | 
[V:3] z12 | 
[V:4] G,4D8 | 
[V:1] G4z4z4 | 
[V:2] g4z4z4 | 
[V:3] E8F4 | 
[V:4] G,8D4- | 
[V:1] z12 | 
[V:2] z12 | 
[V:3] G4A8 | 
[V:4] D4C8 | 
[V:1] z12 | 
[V:2] G8d4- | 
[V:3] E4z4z4 | 
[V:4] B,4E,4F,4 | 
[V:1] z12 | 
[V:2] d4c8 | 
[V:3] z12 | 
[V:4] G,4A,8 | 
[V:1] G8A4 | 
[V:2] B4c6d2 | 
[V:3] z12 | 
[V:4] E,4z4z4 | 
[V:1] G4c8 | 
[V:2] e8f4 | 
[V:3] G8A4 | 
[V:4] C,8F,4 | 
[V:1] B4A6G2 | 
[V:2] d4f8 | 
[V:3] G4c8 | 
[V:4] G,4F,8 | 
[V:1] G8^F4 | 
[V:2] e4d8 | 
[V:3] B4A8 | 
[V:4] G,4D,8 | 
[V:1] G8z4 | 
[V:2] B8B4 | 
[V:3] G4z4z4 | 
[V:4] E,6F,2G,4 | 
[V:1] E8F4 | 
[V:2] c6B2c2d2 | 
[V:3] z12 | 
[V:4] A,6G,2A,4 | 
[V:1] G8A4 | 
[V:2] e8f4 | 
[V:3] z12 | 
[V:4] E,4C,4F,4 | 
[V:1] G4A4E4 | 
[V:2] g4f4g4 | 
[V:3] c8c4 | 
[V:4] E,4F,4C,4 | 
[V:1] z4c8 | 
[V:2] f4e4c4 | 
[V:3] c8c4 | 
[V:4] F,4A,8 | 
[V:1] B2A2G8 | 
[V:2] z12 | 
[V:3] c8c4 | 
[V:4] F,4E,8 | 
[V:1] F12 | 
[V:2] z12 | 
[V:3] d12 | 
[V:4] D,12 | 
[V:1] !fermata!F12 | 
[V:2] !fermata!d12 | 
[V:3] !fermata!d12 | 
[V:4] !fermata!D,12 | 
[V:1] !fermata!A12 | 
[V:2] !fermata!c12 | 
[V:3] !fermata!A12 | 
[V:4] !fermata!F,12 | 
[V:1] !fermata!G12 | 
[V:2] !fermata!e12 | 
[V:3] !fermata!B12 | 
[V:4] !fermata!E,12 | 
[V:1] !fermata!G12 ||  
[V:2] !fermata!e12 ||  
[V:3] !fermata!E12 ||  
[V:4] !fermata!B,12 ||  
[V:1]  [K:C] [K:clef=treble][M:2/1]A4c4 | 
[V:2]  [K:C] [K:clef=treble-8][M:2/1]e6dc | 
[V:3]  [K:C] [K:clef=treble-8][M:2/1]A4A4 | 
[V:4]  [K:C] [K:clef=bass][M:2/1]z8 | 
[V:1] B4E4 | 
[V:2] d2e2c4 | 
[V:3] G4A4 | 
[V:4] z4A,4 | 
[V:1] z2G2A2c2- | 
[V:2] e3de2f2 | 
[V:3] E4A2A2 | 
[V:4] B,4C4 | 
[V:1] c2B2c2BA | 
[V:2] g4e4- | 
[V:3] G4A4 | 
[V:4] D4C4 | 
[V:1] G4z2G2 | 
[V:2] e2dcB4 | 
[V:3] E4z4 | 
[V:4] B,4E,4 | 
[V:1] A2c3BB2 | 
[V:2] z4e4- | 
[V:3] A4G2G2 | 
[V:4] F,2F,2E,4 | 
[V:1] E2A4^G2 | 
[V:2] e4e4 | 
[V:3] A4E4 | 
[V:4] C4B,4 | 
[V:1] A4E4 | 
[V:2] c8 | 
[V:3] z4A4 | 
[V:4] A,4z2C2- | 
[V:1] z8 | 
[V:2] d4z2c2 | 
[V:3] G4A4 | 
[V:4] C2B,2C2B,A, | 
[V:1] z2G2A2B2 | 
[V:2] B4A2G2 | 
[V:3] E4z2G2 | 
[V:4] G,2B,2C2D2 | 
[V:1] c2BAG4 | 
[V:2] z8 | 
[V:3] A2B2c4 | 
[V:4] C2D2E4 | 
[V:1] z2B2c2B2 | 
[V:2] B2d2c2d2 | 
[V:3] G4z2B2 | 
[V:4] D3CA,2G,2 | 
[V:1] z2B2c2B2- | 
[V:2] e4g4- | 
[V:3] c2B2e4 | 
[V:4] E,4z4 | 
[V:1] B2e4dc | 
[V:2] g4g4 | 
[V:3] d2c4BA | 
[V:4] z4C,4 | 
[V:1] B4z4 | 
[V:2] g2e4e2- | 
[V:3] G4A2E2 | 
[V:4] E,4z4 | 
[V:1] z4z2G2- | 
[V:2] e2d2e4 | 
[V:3] F4E4 | 
[V:4] A,4B,4 | 
[V:1] GAB2A2G2 | 
[V:2] e2d2f2e2 | 
[V:3] B4c4 | 
[V:4] E,2G,2F,2C,2 | 
[V:1] B2A2G2A2 | 
[V:2] d2A2B2A2 | 
[V:3] d4e2c2- | 
[V:4] G,2F,2E,2F,2 | 
[V:1] c2B3AA2 | 
[V:2] e2g2fe2d | 
[V:3] c2d2c2A2 | 
[V:4] A,2G,2A,2F,2 | 
[V:1] G2A4^G2 | 
[V:2] e2f2e4- | 
[V:3] B8 | 
[V:4] E,2D,2E,4 | 
[V:1] A8 |]  
[V:2] e8 |]  
[V:3] A8 |]  
[V:4] A,8 |]  



